X:11
T:Lisheen, The
S:as recorded by John and James Kelly, Michael Crehan, Michael Gavin
D:Outlet PTICD 1041 - reissue of Tara 1008, 1974
N:transcribed by Alan Ng
Z:id:ng-other-11 Transcribed by Alan Ng agng@facstaff.wisc.edu July 5, 2000
R:slide
M:12/8
K:GMaj
BcB BAB G2B A2G|BcB BAG A2B cBA|BcB BAB G3 GBd|g2e dBG A2B cBA:|*
|:g3 d3 ege d^cd|g3 aga bab afd|g3 d3 ege d^cd|g3 aga bgf g3:|**
